Numix-GalliumOS/24/mimetypes/application-epub+zip.svg

<?xml version="1.0" encoding="UTF-8" standalone="no"?>
<svg
   xmlns:dc="http://purl.org/dc/elements/1.1/"
   xmlns:cc="http://creativecommons.org/ns#"
   xmlns:rdf="http://www.w3.org/1999/02/22-rdf-syntax-ns#"
   xmlns:svg="http://www.w3.org/2000/svg"
   xmlns="http://www.w3.org/2000/svg"
   xmlns:sodipodi="http://sodipodi.sourceforge.net/DTD/sodipodi-0.dtd"
   xmlns:inkscape="http://www.inkscape.org/namespaces/inkscape"
   width="24"
   height="24"
   viewBox="0 0 24 24"
   id="svg2"
   version="1.1"
   inkscape:version="0.48.5 r10040"
   sodipodi:docname="application-epub+zip.svg">
  <metadata
     id="metadata18">
    <rdf:RDF>
      <cc:Work
         rdf:about="">
        <dc:format>image/svg+xml</dc:format>
        <dc:type
           rdf:resource="http://purl.org/dc/dcmitype/StillImage" />
      </cc:Work>
    </rdf:RDF>
  </metadata>
  <defs
     id="defs16" />
  <sodipodi:namedview
     pagecolor="#ffffff"
     bordercolor="#666666"
     borderopacity="1"
     objecttolerance="10"
     gridtolerance="10"
     guidetolerance="10"
     inkscape:pageopacity="0"
     inkscape:pageshadow="2"
     inkscape:window-width="1280"
     inkscape:window-height="970"
     id="namedview14"
     showgrid="true"
     inkscape:zoom="17.117877"
     inkscape:cx="6.0170002"
     inkscape:cy="12.110846"
     inkscape:window-x="0"
     inkscape:window-y="0"
     inkscape:window-maximized="1"
     inkscape:current-layer="svg2">
    <inkscape:grid
       type="xygrid"
       id="grid3008"
       empspacing="5"
       visible="true"
       enabled="true"
       snapvisiblegridlinesonly="true" />
  </sodipodi:namedview>
  <path
     style="fill:#7c9c35;fill-opacity:1"
     d="m 5,0.9999998 c -0.472657,0 -1,0.527344 -1,1 L 4,22 c 0,0.445312 0.554687,1 1,1 l 14,0 c 0.445313,0 0.992367,-0.554753 1,-1 L 20,7 14,0.9999998 z"
     id="path4-0"
     inkscape:connector-curvature="0"
     sodipodi:nodetypes="ssssssccs" />
  <path
     style="fill:#000000;fill-opacity:0.19599998"
     d="m 15,7 5,5 0,-5 z"
     id="path6"
     inkscape:connector-curvature="0"
     sodipodi:nodetypes="cccc" />
  <path
     style="fill:#ffffff;fill-opacity:0.39200003"
     d="M 14,0.9999998 20,7 15,7 C 14.554688,7 14,6.445312 14,6 z"
     id="path8"
     inkscape:connector-curvature="0"
     sodipodi:nodetypes="ccssc" />
  <path
     style="fill:#ffffff"
     inkscape:connector-curvature="0"
     id="path12"
     d="M 12,16.172512 8.7456483,12.91816 12,9.659392 13.086256,10.745648 10.913744,12.91816 12,14 15.254352,10.745648 12.419489,7.9107849 c -0.229615,-0.2340305 -0.609363,-0.2340305 -0.838978,0 L 6.9926248,12.498671 c -0.2296139,0.229615 -0.2296139,0.604947 0,0.838977 l 4.5878862,4.587886 c 0.229615,0.229615 0.609363,0.229615 0.838978,0 l 4.587886,-4.587886 c 0.229614,-0.23403 0.229614,-0.609362 0,-0.838977 l -0.666767,-0.666767 z" />
</svg>

<svg xmlns="http://www.w3.org/2000/svg" viewBox="0 0 24 24">
 <path d="m 5 1 c -0.473 0 -1 0.527 -1 1 l 0 20 c 0 0.445 0.555 1 1 1 l 14 0 c 0.445 0 0.992 -0.555 1 -1 l 0 -15 -6 -6 z" style="fill:#7c9c35;fill-opacity:1"/>
 <path d="m 15 7 5 5 0 -5 z" style="fill:#000;fill-opacity:0.196"/>
 <path d="m 14 1 6 6 -5 0 c -0.445 0 -1 -0.555 -1 -1 z" style="fill:#fff;fill-opacity:0.392"/>
 <path d="m 12 16.17 -3.254 -3.254 3.254 -3.259 1.086 1.086 -2.173 2.173 1.086 1.082 3.254 -3.254 -2.835 -2.835 c -0.23 -0.234 -0.609 -0.234 -0.839 0 l -4.588 4.588 c -0.23 0.23 -0.23 0.605 0 0.839 l 4.588 4.588 c 0.23 0.23 0.609 0.23 0.839 0 l 4.588 -4.588 c 0.23 -0.234 0.23 -0.609 0 -0.839 l -0.667 -0.667 z" style="fill:#fff"/>
</svg>
